!!!!SEGMENT: Distler_Jahrkreis_08_Gott-sei-Dank-durch-alle-Welt.krn
!!!COM: Distler, Hugo
!!!CDT: 1908-1942
!!!OPR@@DE: Der Jahrkreis
!!!OPR@EN: The Year Cycle
!!!OTL@@DE: Gott sei Dank durch alle Welt
!!!OTL@EN: God be thanked through all the world
!!!OPS: 5
!!!ONM: 8
**kern	**text	**kern	**text	**kern	**text
*part3	*part3	*part2	*part2	*part1	*part1
*staff3	*staff3	*staff2	*staff2	*staff1	*staff1
*Ibass	*	*Ialto	*	*Isoprn	*
*clefF4	*	*clefG2	*	*clefG2	*
*k[b-]	*	*k[b-]	*	*k[b-]	*
*MM120	*	*MM120	*	*MM120	*
*M2/1	*	*M2/1	*	*M2/1	*
=1	=1	=1	=1	=1	=1
1r	.	1g	Gott	1r	.
1r	.	2g	sei	2.dd	Gott
.	.	[2f	Dank,	.	.
.	.	.	.	4dd	sei
=2	=2	=2	=2	=2	=2
1r	.	2f],	.	(2.ff	Dank
.	.	(2.b-	Gott	.	.
.	.	.	.	4ee	.
1G	Gott	.	.	4dd	.
.	.	4a	.	4cc	.
.	.	4g	.	2b-)	.
.	.	4f	.	.	.
=3	=3	=3	=3	=3	=3
2G	sei	2g)	.	2cc	durch
1F	Dank	2d	sei	2.dd	al-
.	.	2.a	Dank	.	.
.	.	.	.	4ee	le
2B-	durch	.	.	[2ff	Welt,
.	.	4b-	durch	.	.
=4	=4	=4	=4	=4	=4
(2.A	al-	(2.cc	al-	4ff],	.
.	.	.	.	4cc	durch
.	.	.	.	(2.dd	al-
4G	.	4b-	.	.	.
2F)	.	2a)	.	.	.
.	.	.	.	8ccL	.
.	.	.	.	8b-J)	.
2E-	le	2g	le	2cc	le
=5	=5	=5	=5	=5	=5
1G	Welt,	2a,	Welt,	1dd,	Welt,
.	.	4b-	der	.	.
.	.	4b-	sein	.	.
2r	.	2g,	Wort,	4dd	der
.	.	.	.	4dd	sein
4G	der	([2b-	der	[2ee-	Wort,
4G	sein	.	.	.	.
!!LO:LB:g=original
=6	=6	=6	=6	=6	=6
1c	Welt	4b-]	.	2ee-],	.
.	.	8aL	.	.	.
.	.	8gJ)	.	.	.
.	.	2a	sein	4cc	der
.	.	.	.	4cc	sein
1B-	be-	2b-	Wort	(4.dd	Wort
.	.	.	.	8ee-	.
.	.	2dd	be-	4ff	.
.	.	.	.	[4gg	.
=7	=7	=7	=7	=7	=7
1.c	staen-	(4ee-	staen-	4gg])	.
.	.	4dd	.	4ff	be-
.	.	4cc	.	4ee-	staen-
.	.	4b-	.	4ee-	dig
.	.	2a)	.	1dd,	haelt,
2c	dig	2g	dig	.	.
=8	=8	=8	=8	=8	=8
2B-,	haelt,	1a,	haelt,	2.dd	und
4B-	und	.	.	.	.
4B-	der	.	.	4een	der
1d	Suen-	4a	und	1ff#	Suen-
.	.	4a	der	.	.
.	.	2dd	Suen-	.	.
=9	=9	=9	=9	=9	=9
2Bn	der	2dd	der	2gg	der
(2.c	Trost	4g	Trost	(2.ee	Trost
.	.	4g	und	.	.
.	.	1cc,	Rat	.	.
4B-)	.	.	.	4dd)	.
2A	und	.	.	2cc	und
!!LO:LB:g=original
=10	=10	=10	=10	=10	=10
1G	Rat	(2.b-	zu	1dd,	Rat
.	.	4a)	.	.	.
1r	.	(2g	uns,	2.dd	zu
.	.	[2f	.	.	.
.	.	.	.	4dd	uns
=11	=11	=11	=11	=11	=11
1r	.	2f]),	.	(2.ff	her-
.	.	(2.b-	zu	.	.
.	.	.	.	4ee	.
1G	zu	.	.	4dd	.
.	.	4a	.	4cc	.
.	.	4g	.	2b-)	.
.	.	4f	.	.	.
=12	=12	=12	=12	=12	=12
2G	uns	2g)	.	2cc	ge-
1F	her-	2d	uns	2.dd	sen-
.	.	2.a	her-	.	.
.	.	.	.	4ee	det
2B-	ge-	.	.	[2ff	hat,
.	.	4b-	ge-	.	.
=13	=13	=13	=13	=13	=13
(2.A	sen-	(2.cc	sen-	4ff],	.
.	.	.	.	4cc	ge-
.	.	.	.	(2.dd	sen-
4G	.	4b-	.	.	.
2F)	.	2a)	.	.	.
.	.	.	.	8ccL	.
.	.	.	.	8b-J)	.
2E-	det	(4g	det	2cc	det
.	.	4a)	.	.	.
=14	=14	=14	=14	=14	=14
[1G	hat!	[1bn	hat!	[1dd	hat!
1G]	hat!	1bn]	hat!	1dd]	hat!
==	==	==	==	==	==
*-	*-	*-	*-	*-	*-
!!!YOR: Bärenreiter-Ausgabe 676
!!!YOY: 1933
!!!EFL: 8/52
!!!URL-pdf: https://imslp.eu/files/imglnks/euimg/7/7d/IMSLP834545-PMLP518834-5-jahrkreis-EA--original-paper-600dpi.pdf#page=17 First edition, Kassel: Bärenreiter, 1933. Plate BA 676.
!!!URL-imslp: https://imslp.org/wiki/Der_Jahrkreis,_Op.5_(Distler,_Hugo)#IMSLP834545
!!!URL-youtube: https://www.youtube.com/watch?v=3pgHQc70vX0 Ensemble Singklang
!!!system-decoration: [(s1,s2,s3)]
!!!ENC: Lucas Hofmann
!!!END: 2023/10/26
!!!title: @{OPR@@DE}, Op. @{OPS}, Nr. @{ONM}. @{OTL@@DE}
